X:1
T:Christmas Anthem
T:Translated by Henry Beets (1869-?)
T:Christmas Anthem
T:Public Domain
T:Public Domain
C:Translated by Henry Beets (1869-?)
Z:Public Domain
%%score ( 1 2 ) ( 3 4 )
L:1/8
M:9/8
K:Bb
V:1 treble 
V:2 treble 
V:3 bass 
V:4 bass 
V:1
 [DB]2 [DB] | [EB]3- [EB]2 [DB] ([CA][DB])[Ec] | [Fd]3 [DB]3 ([DB][Ec])[Fd] | %3
w: 1.~Hear what|glo- * rious song * of|an- gels Is * now|
w: 2.~Mes- sen-|gers * of God’s * free|mer- cy Are * now|
w: 3.~Let us|al- * so sing * the|prais- es Of * our|
 [Ee]3- [Ee]2 [EA] (cB)[EG] | [DF]6 F2 F | [Fc]3- [Fc]2 [FA] (Bc)[_Ad] | [Ge]3 [Ge]3 [EG]2 [Ec] | %7
w: ring- * ing through * the|Nev- er val-|er * mount- ain * Heard|an- them half so|
w: seen * by hu- * man|Shep- herds hear|drous * mes- sage: * “Glo-|be to God on|
w: God * so full * of|Who on Christ-|a * Sav- ior, * Sent|Sav- ior from a-|
 [DB-]3 (BA)[DB] [Fd]2 [Ec] | [DB]6 ||"^Refrain" (dc)[FB] | [Fd]3 [Fc]3 (ed)[Fc] | %11
w: fair. * * * * *||||
w: high.” * * * * *||||
w: bove. * * * * *||||
 [Fe]3 [Fd]3 [^Fc]2 [Fd] | [GB]3- [GB]2 [DB] ([=EB]A)[EB] | (F3 E3) [DB]2 [Ec] | %14
w: |||
w: |||
w: |||
 [Fd]3- [Fd]2 [Fd] (dc)[Fd] | [Ee]3 [Ge]3 [EG]2 [Gc] | ([FB]3 BA)[DB] [Fd]2 [Ec] | [DB]6 |] %18
w: ||||
w: ||||
w: ||||
V:2
 x3 | x9 | x9 | x6 E2 x | x6 F2 F | x6 F2 x | x9 | x3 E2 x4 | x6 || F2 x | x6 F2 x | x9 | %12
w: |||air;|ley, nev-|an|||||||
w: |||eye;|the won-|ry|||||||
w: |||love,|mas sent|a|||||||
 x5 =E2 x2 | c6 x3 | x6 F2 x | x9 | x3 E2 x4 | x6 |] %18
w: ||||||
w: ||||||
w: ||||||
V:3
 [B,,F,]2 [B,,F,] | [B,,G,]3- [B,,G,]2 [B,,F,] [F,,F,]2 [F,,F,] | %2
w: ~ ~|~ * ~ ~ ~|
 [B,,F,]3 [B,,F,]3 (B,A,)[B,,_A,] | [B,,G,]3- [B,,G,]2 [B,,^F,] [E,G,]2 [E,B,] | [B,,B,]6 F,2 F, | %5
w: ~ ~ ~ * ~|~ * ~ ~ ~|~ ~ ~|
 [F,A,]3- [F,A,]2 [E,C] ([D,B,][F,A,])B, | [E,B,]3 [E,B,]3 [E,B,]2 [E,G,] | %7
w: ~ * ~ ~ * ~|~ ~ ~ ~|
 F,3 [F,C]2 [F,B,] [F,A,]2 [F,A,] | [B,,B,]6 || [B,,B,]2 [D,B,] | [F,B,]3 [F,A,]3 (CB,)[F,A,] | %11
w: Hal- * le- lu- jah,|le-|lu- jah|* Is the * ju-|
 [F,C]3 [B,,B,]3 [D,A,]2 [D,D] | [G,D]3- [G,D]2 [G,B,] [C,C]2 [C,G,] | [F,A,]6 [B,,B,]2 [B,,B,] | %14
w: lant re- frain; God|is * send- ing us|a Sav- ior,|
 [B,,B,]3- (B,,D,)[F,B,] (B,[A,C])[_A,B,] | [G,B,]3 [E,B,]3 [E,B,]2 [E,E] | %16
w: Peace * * on earth, * good|man. * * *|
 ([F,-D]3 [F,C]2) [F,B,] [F,,F,A,]2 [F,,F,A,] | [B,,B,]6 |] %18
w: ||
V:4
 x3 | x9 | x6 B,,2 x | x9 | x6 F,2 F, | x8 B, | x9 | F,3- x6 | x6 || x3 | x6 F,2 x | x9 | x9 | x9 | %14
w: ||~||~ ~|~||hal-|||bi-||||
 x3 B,2 B, x3 | x9 | x9 | x6 |] %18
w: will to||||

